X:9
T:Connaughtman's Rambles
R:jig
O:Ireland
M:6/8
L:1/8
K:D
"D" FAA       dAA | "A" BAB dAG | "D" FAA def | "G" edB BAG |
"D" FAA       dAA | "A" BAB def | "G" gfe dfe |1 dBA    BAG :|2 dBA B2 d ||
"D" fbb "(A)" faa | "G" fef ded | "D" fbb faa |    fed e2 g | 
"D" fbb "(A)" faa | "G" fef def |     gfe dfe |1 dBB  B2  g :|2 "(A)" dBB BAG |]
